icons/world-longitude.svg

<svg width="24" height="24" viewBox="0 0 24 24" fill="none" xmlns="http://www.w3.org/2000/svg">
<path fill-rule="evenodd" clip-rule="evenodd" d="M13 4.74165V19.2584C13.7861 18.4822 14.4433 17.5811 14.9432 16.5888C15.6602 15.1654 16.0337 13.5938 16.0337 12C16.0337 10.4062 15.6602 8.83458 14.9432 7.41118C14.4433 6.41885 13.7861 5.51782 13 4.74165ZM11 19.2584V4.74165C10.2139 5.51782 9.55672 6.41885 9.05685 7.41118C8.33982 8.83458 7.96633 10.4062 7.96633 12C7.96633 13.5938 8.33982 15.1654 9.05685 16.5888C9.55672 17.5811 10.2139 18.4822 11 19.2584ZM8.20602 19.045C7.85704 18.5516 7.54417 18.0315 7.27067 17.4886C6.41306 15.7861 5.96633 13.9063 5.96633 12C5.96633 10.0937 6.41306 8.21391 7.27067 6.51141C7.54417 5.96847 7.85704 5.44838 8.20602 4.95498C5.70181 6.30654 4 8.95471 4 12C4 15.0453 5.70181 17.6935 8.20602 19.045ZM15.794 19.045C18.2982 17.6935 20 15.0453 20 12C20 8.95471 18.2982 6.30654 15.794 4.95498C16.143 5.44838 16.4558 5.96847 16.7293 6.51141C17.5869 8.21391 18.0337 10.0937 18.0337 12C18.0337 13.9063 17.5869 15.7861 16.7293 17.4886C16.4558 18.0315 16.143 18.5516 15.794 19.045ZM11.4233 2.01638C11.6142 2.00551 11.8065 2 12 2C12.1935 2 12.3858 2.00551 12.5767 2.01638C17.8317 2.31567 22 6.6707 22 12C22 17.3293 17.8317 21.6843 12.5767 21.9836C12.3858 21.9945 12.1935 22 12 22C11.8065 22 11.6142 21.9945 11.4233 21.9836C6.16832 21.6843 2 17.3293 2 12C2 6.6707 6.16832 2.31567 11.4233 2.01638Z" fill="black"/>
</svg>

<svg
  width="24"
  height="24"
  viewBox="0 0 24 24"
  xmlns="http://www.w3.org/2000/svg"
>
  <path
    fill-rule="evenodd"
    clip-rule="evenodd"
    d="M13 4.742v14.516a10.203 10.203 0 0 0 0-14.516zm-2 14.516V4.742a10.2 10.2 0 0 0 0 14.516zm-2.794-.213a12.203 12.203 0 0 1 0-14.09A8 8 0 0 0 4 12a7.999 7.999 0 0 0 4.206 7.045zm7.588 0A7.999 7.999 0 0 0 20 12a8 8 0 0 0-4.206-7.045 12.198 12.198 0 0 1 0 14.09zm-4.37-17.029a10.144 10.144 0 0 1 1.153 0C17.832 2.316 22 6.671 22 12c0 5.33-4.168 9.684-9.423 9.984a10.116 10.116 0 0 1-1.154 0C6.168 21.684 2 17.329 2 12c0-5.33 4.168-9.684 9.423-9.984z"
  />
</svg>
